neru-dark-classic/22x22/emblems/emblem-ok-symbolic.svg

<svg xmlns="http://www.w3.org/2000/svg" width="16" height="16" version="1.1">
 <path style="fill:#5c616c" d="M 12.84,3.0302 C 12.631,3.0802 12.42,3.2002 12.28,3.3702 L 6,10.56 3.75,8.3102 C 3.37,7.9402 2.69,7.9402 2.31,8.3102 1.94,8.6902 1.94,9.3702 2.31,9.7502 L 5.31,12.75 6.09,13.5 6.78,12.69 13.78,4.6902 C 14.35,4.0702 13.67,2.8602 12.84,3.0302 Z"/>
</svg>

<svg xmlns="http://www.w3.org/2000/svg" width="16" height="16"><path d="M12.84 3.03c-.209.05-.42.17-.56.34L6 10.56 3.75 8.31c-.38-.37-1.06-.37-1.44 0-.37.38-.37 1.06 0 1.44l3 3 .78.75.69-.81 7-8c.57-.62-.11-1.83-.94-1.66z" fill="#5c616c"/></svg>
